gen_eval/fsa.svg

<?xml version="1.0" encoding="UTF-8" standalone="no"?>
<!-- Generated by graphviz version 12.1.1 (20240910.0053)
 -->

<!-- Title: FSA Pages: 1 -->

<svg
   width="434.06644pt"
   height="91.990707pt"
   viewBox="0 0 434.00391 92.380668"
   version="1.1"
   id="svg99"
   sodipodi:docname="fsa.svg"
   inkscape:version="1.2.2 (b0a8486541, 2022-12-01)"
   xmlns:inkscape="http://www.inkscape.org/namespaces/inkscape"
   xmlns:sodipodi="http://sodipodi.sourceforge.net/DTD/sodipodi-0.dtd"
   xmlns="http://www.w3.org/2000/svg"
   xmlns:svg="http://www.w3.org/2000/svg">
  <defs
     id="defs103" />
  <sodipodi:namedview
     id="namedview101"
     pagecolor="#ffffff"
     bordercolor="#666666"
     borderopacity="1.0"
     inkscape:showpageshadow="2"
     inkscape:pageopacity="0.0"
     inkscape:pagecheckerboard="0"
     inkscape:deskcolor="#d1d1d1"
     inkscape:document-units="pt"
     showgrid="false"
     inkscape:zoom="2.0401235"
     inkscape:cx="255.13162"
     inkscape:cy="61.760968"
     inkscape:window-width="2560"
     inkscape:window-height="1375"
     inkscape:window-x="1080"
     inkscape:window-y="165"
     inkscape:window-maximized="1"
     inkscape:current-layer="svg99" />
  <g
     id="graph0"
     class="graph"
     transform="translate(-48.15371,88.380671)">
    <title
       id="title2">FSA</title>
    <polygon
       fill="#ffffff"
       stroke="none"
       points="-4,4 -4,-88.39 481.93,-88.39 481.93,4 "
       id="polygon4" />
    <!-- q0 -->
    <g
       id="node1"
       class="node">
      <title
         id="title6">q0</title>
      <circle
         fill="none"
         stroke="#000000"
         cx="115.69"
         cy="-24.690001"
         id="ellipse8"
         r="20.690001" />
      <circle
         fill="none"
         stroke="#000000"
         cx="115.69"
         cy="-24.690001"
         id="ellipse10"
         r="24.690001" />
      <text
         text-anchor="middle"
         x="115.69"
         y="-20.49"
         font-family="Times, serif"
         font-size="14px"
         id="text12">q0</text>
    </g>
    <!-- q1 -->
    <g
       id="node2"
       class="node">
      <title
         id="title15">q1</title>
      <circle
         fill="none"
         stroke="#000000"
         cx="204.08"
         cy="-60.689999"
         id="ellipse17"
         r="20.690001" />
      <text
         text-anchor="middle"
         x="204.08"
         y="-56.490002"
         font-family="Times, serif"
         font-size="14px"
         id="text19">q1</text>
    </g>
    <!-- q0&#45;&gt;q1 -->
    <g
       id="edge2"
       class="edge">
      <title
         id="title22">q0-&gt;q1</title>
      <path
         fill="none"
         stroke="#000000"
         d="m 138.94,-33.96 c 10.68,-4.46 23.62,-9.85 35.07,-14.62"
         id="path24" />
      <polygon
         fill="#000000"
         stroke="#000000"
         points="183.02,-52.33 175.13,-45.25 172.44,-51.72 "
         id="polygon26" />
      <text
         text-anchor="middle"
         x="161.89"
         y="-49.049999"
         font-family="Times, serif"
         font-size="14px"
         id="text28">1</text>
    </g>
    <!-- q2 -->
    <g
       id="node3"
       class="node">
      <title
         id="title31">q2</title>
      <circle
         fill="none"
         stroke="#000000"
         cx="288.47"
         cy="-63.689999"
         id="ellipse33"
         r="20.690001" />
      <text
         text-anchor="middle"
         x="288.47"
         y="-59.490002"
         font-family="Times, serif"
         font-size="14px"
         id="text35">q2</text>
    </g>
    <!-- q1&#45;&gt;q2 -->
    <g
       id="edge3"
       class="edge">
      <title
         id="title38">q1-&gt;q2</title>
      <path
         fill="none"
         stroke="#000000"
         d="m 225.02,-61.42 c 9.35,-0.34 20.7,-0.75 31.14,-1.13"
         id="path40" />
      <polygon
         fill="#000000"
         stroke="#000000"
         points="265.91,-62.91 256.04,-59.05 255.79,-66.04 "
         id="polygon42" />
      <text
         text-anchor="middle"
         x="246.27"
         y="-66.480003"
         font-family="Times, serif"
         font-size="14px"
         id="text44">1</text>
    </g>
    <!-- q3 -->
    <g
       id="node4"
       class="node">
      <title
         id="title47">q3</title>
      <circle
         fill="none"
         stroke="#000000"
         cx="372.85001"
         cy="-60.689999"
         id="ellipse49"
         r="20.690001" />
      <text
         text-anchor="middle"
         x="372.85001"
         y="-56.490002"
         font-family="Times, serif"
         font-size="14px"
         id="text51">q3</text>
    </g>
    <!-- q2&#45;&gt;q3 -->
    <g
       id="edge4"
       class="edge">
      <title
         id="title54">q2-&gt;q3</title>
      <path
         fill="none"
         stroke="#000000"
         d="m 309.41,-62.97 c 9.34,0.34 20.69,0.76 31.14,1.14"
         id="path56" />
      <polygon
         fill="#000000"
         stroke="#000000"
         points="350.3,-61.48 340.18,-58.34 340.43,-65.34 "
         id="polygon58" />
      <text
         text-anchor="middle"
         x="330.66"
         y="-66.480003"
         font-family="Times, serif"
         font-size="14px"
         id="text60">1</text>
    </g>
    <!-- q4 -->
    <g
       id="node5"
       class="node">
      <title
         id="title63">q4</title>
      <circle
         fill="none"
         stroke="#000000"
         cx="457.23999"
         cy="-24.690001"
         id="ellipse65"
         r="20.690001" />
      <text
         text-anchor="middle"
         x="457.23999"
         y="-20.49"
         font-family="Times, serif"
         font-size="14px"
         id="text67">q4</text>
    </g>
    <!-- q3&#45;&gt;q4 -->
    <g
       id="edge5"
       class="edge">
      <title
         id="title70">q3-&gt;q4</title>
      <path
         fill="none"
         stroke="#000000"
         d="m 392.14,-52.7 c 10.38,4.53 23.61,10.31 35.34,15.44"
         id="path72" />
      <polygon
         fill="#000000"
         stroke="#000000"
         points="436.34,-33.39 425.77,-34.19 428.57,-40.6 "
         id="polygon74" />
      <text
         text-anchor="middle"
         x="415.04999"
         y="-47.970001"
         font-family="Times, serif"
         font-size="14px"
         id="text76">0</text>
    </g>
    <!-- q4&#45;&gt;q0 -->
    <g
       id="edge6"
       class="edge">
      <title
         id="title79">q4-&gt;q0</title>
      <path
         fill="none"
         stroke="#000000"
         d="m 437.13,-18.83 c -16.56,4.57 -41.27,10.14 -63.28,10.14 -170.77,0 -170.77,0 -170.77,0 -17.43,0 -36.51,-3.19 -52.29,-6.72"
         id="path81" />
      <polygon
         fill="#000000"
         stroke="#000000"
         points="141.42,-17.65 151.96,-18.73 150.33,-11.92 "
         id="polygon83" />
      <text
         text-anchor="middle"
         x="288.47"
         y="-12.89"
         font-family="Times, serif"
         font-size="14px"
         id="text85">0</text>
    </g>
    <!-- start -->
    <g
       id="node6"
       class="node">
      <title
         id="title88">start</title>
    </g>
    <!-- start&#45;&gt;q0 -->
    <g
       id="edge1"
       class="edge">
      <title
         id="title91">start-&gt;q0</title>
      <path
         fill="none"
         stroke="#000000"
         d="m 53.54,-24.69 c 8.04,0 17.06,0 25.66,0"
         id="path93" />
      <polygon
         fill="#000000"
         stroke="#000000"
         points="89.01,-24.69 79.01,-21.19 79.01,-28.19 "
         id="polygon95" />
    </g>
  </g>
</svg>

<?xml version="1.0" encoding="UTF-8" standalone="no"?>
<!DOCTYPE svg PUBLIC "-//W3C//DTD SVG 1.1//EN"
 "http://www.w3.org/Graphics/SVG/1.1/DTD/svg11.dtd">
<!-- Generated by graphviz version 12.1.1 (20240910.0053)
 -->
<!-- Title: FSA Pages: 1 -->
<svg width="486pt" height="92pt"
 viewBox="0.00 0.00 485.93 92.39" xmlns="http://www.w3.org/2000/svg" xmlns:xlink="http://www.w3.org/1999/xlink">
<g id="graph0" class="graph" transform="scale(1 1) rotate(0) translate(4 88.39)">
<title>FSA</title>
<polygon fill="white" stroke="none" points="-4,4 -4,-88.39 481.93,-88.39 481.93,4 -4,4"/>
<!-- q0 -->
<g id="node1" class="node">
<title>q0</title>
<ellipse fill="none" stroke="black" cx="115.69" cy="-24.69" rx="20.69" ry="20.69"/>
<ellipse fill="none" stroke="black" cx="115.69" cy="-24.69" rx="24.69" ry="24.69"/>
<text text-anchor="middle" x="115.69" y="-20.49" font-family="Times,serif" font-size="14.00">q0</text>
</g>
<!-- q1 -->
<g id="node2" class="node">
<title>q1</title>
<ellipse fill="none" stroke="black" cx="204.08" cy="-60.69" rx="20.69" ry="20.69"/>
<text text-anchor="middle" x="204.08" y="-56.49" font-family="Times,serif" font-size="14.00">q1</text>
</g>
<!-- q0&#45;&gt;q1 -->
<g id="edge2" class="edge">
<title>q0&#45;&gt;q1</title>
<path fill="none" stroke="black" d="M138.94,-33.96C149.62,-38.42 162.56,-43.81 174.01,-48.58"/>
<polygon fill="black" stroke="black" points="172.44,-51.72 183.02,-52.33 175.13,-45.25 172.44,-51.72"/>
<text text-anchor="middle" x="161.89" y="-49.05" font-family="Times,serif" font-size="14.00">1</text>
</g>
<!-- q2 -->
<g id="node3" class="node">
<title>q2</title>
<ellipse fill="none" stroke="black" cx="288.47" cy="-63.69" rx="20.69" ry="20.69"/>
<text text-anchor="middle" x="288.47" y="-59.49" font-family="Times,serif" font-size="14.00">q2</text>
</g>
<!-- q1&#45;&gt;q2 -->
<g id="edge3" class="edge">
<title>q1&#45;&gt;q2</title>
<path fill="none" stroke="black" d="M225.02,-61.42C234.37,-61.76 245.72,-62.17 256.16,-62.55"/>
<polygon fill="black" stroke="black" points="255.79,-66.04 265.91,-62.91 256.04,-59.05 255.79,-66.04"/>
<text text-anchor="middle" x="246.27" y="-66.48" font-family="Times,serif" font-size="14.00">1</text>
</g>
<!-- q3 -->
<g id="node4" class="node">
<title>q3</title>
<ellipse fill="none" stroke="black" cx="372.85" cy="-60.69" rx="20.69" ry="20.69"/>
<text text-anchor="middle" x="372.85" y="-56.49" font-family="Times,serif" font-size="14.00">q3</text>
</g>
<!-- q2&#45;&gt;q3 -->
<g id="edge4" class="edge">
<title>q2&#45;&gt;q3</title>
<path fill="none" stroke="black" d="M309.41,-62.97C318.75,-62.63 330.1,-62.21 340.55,-61.83"/>
<polygon fill="black" stroke="black" points="340.43,-65.34 350.3,-61.48 340.18,-58.34 340.43,-65.34"/>
<text text-anchor="middle" x="330.66" y="-66.48" font-family="Times,serif" font-size="14.00">1</text>
</g>
<!-- q4 -->
<g id="node5" class="node">
<title>q4</title>
<ellipse fill="none" stroke="black" cx="457.24" cy="-24.69" rx="20.69" ry="20.69"/>
<text text-anchor="middle" x="457.24" y="-20.49" font-family="Times,serif" font-size="14.00">q4</text>
</g>
<!-- q3&#45;&gt;q4 -->
<g id="edge5" class="edge">
<title>q3&#45;&gt;q4</title>
<path fill="none" stroke="black" d="M392.14,-52.7C402.52,-48.17 415.75,-42.39 427.48,-37.26"/>
<polygon fill="black" stroke="black" points="428.57,-40.6 436.34,-33.39 425.77,-34.19 428.57,-40.6"/>
<text text-anchor="middle" x="415.05" y="-47.97" font-family="Times,serif" font-size="14.00">0</text>
</g>
<!-- q4&#45;&gt;q0 -->
<g id="edge6" class="edge">
<title>q4&#45;&gt;q0</title>
<path fill="none" stroke="black" d="M437.13,-18.83C420.57,-14.26 395.86,-8.69 373.85,-8.69 203.08,-8.69 203.08,-8.69 203.08,-8.69 185.65,-8.69 166.57,-11.88 150.79,-15.41"/>
<polygon fill="black" stroke="black" points="150.33,-11.92 141.42,-17.65 151.96,-18.73 150.33,-11.92"/>
<text text-anchor="middle" x="288.47" y="-12.89" font-family="Times,serif" font-size="14.00">0</text>
</g>
<!-- start -->
<g id="node6" class="node">
<title>start</title>
</g>
<!-- start&#45;&gt;q0 -->
<g id="edge1" class="edge">
<title>start&#45;&gt;q0</title>
<path fill="none" stroke="black" d="M53.54,-24.69C61.58,-24.69 70.6,-24.69 79.2,-24.69"/>
<polygon fill="black" stroke="black" points="79.01,-28.19 89.01,-24.69 79.01,-21.19 79.01,-28.19"/>
</g>
</g>
</svg>
